package/converter/svg/duotone/calendar-plus.svg

<svg xmlns="http://www.w3.org/2000/svg" viewBox="0 0 448 512"><!-- Font Awesome Pro 6.0.0-alpha2 by @fontawesome - https://fontawesome.com License - https://fontawesome.com/license (Commercial License) --><defs><style>.fa-secondary{opacity:.4}</style></defs><path d="M0 192V464C0 490.5 21.5 512 48 512H400C426.5 512 448 490.5 448 464V192H0ZM304.002 375.998H247.998V432.002C247.998 445.262 237.258 456 224 456C210.734 456 200.002 445.258 200.002 432.002V375.998H143.998C130.73 375.998 120 365.256 120 352C120 338.742 130.738 328.002 143.998 328.002H200.002V271.998C200.002 258.738 210.742 248 224 248S247.998 258.738 247.998 271.998V328.002H304.002C317.262 328.002 328 338.742 328 352S317.262 375.998 304.002 375.998Z" class="fa-secondary"/><path d="M400 64H352V32C352 14.327 337.673 0 320 0H320C302.327 0 288 14.327 288 32V64H160V32C160 14.327 145.673 0 128 0H128C110.327 0 96 14.327 96 32V64H48C21.49 64 0 85.49 0 112V192H448V112C448 85.49 426.51 64 400 64ZM304.002 328.002H247.998V271.998C247.998 258.738 237.258 248 224 248S200.002 258.738 200.002 271.998V328.002H143.998C130.738 328.002 120 338.742 120 352C120 365.256 130.73 375.998 143.998 375.998H200.002V432.002C200.002 445.258 210.734 456 224 456C237.258 456 247.998 445.262 247.998 432.002V375.998H304.002C317.262 375.998 328 365.258 328 352S317.262 328.002 304.002 328.002Z" class="fa-primary"/></svg>

<svg xmlns="http://www.w3.org/2000/svg" viewBox="0 0 448 512"><!--! Font Awesome Pro 6.6.0 by @fontawesome - https://fontawesome.com License - https://fontawesome.com/license (Commercial License) Copyright 2024 Fonticons, Inc. --><defs><style>.fa-secondary{opacity:.4}</style></defs><path class="fa-secondary" d="M0 192l448 0 0 272c0 26.5-21.5 48-48 48L48 512c-26.5 0-48-21.5-48-48L0 192zM120 352c0 13.3 10.7 24 24 24l56 0 0 56c0 13.3 10.7 24 24 24s24-10.7 24-24l0-56 56 0c13.3 0 24-10.7 24-24s-10.7-24-24-24l-56 0 0-56c0-13.3-10.7-24-24-24s-24 10.7-24 24l0 56-56 0c-13.3 0-24 10.7-24 24z"/><path class="fa-primary" d="M96 32c0-17.7 14.3-32 32-32s32 14.3 32 32l0 32 128 0 0-32c0-17.7 14.3-32 32-32s32 14.3 32 32l0 32 48 0c26.5 0 48 21.5 48 48l0 80L0 192l0-80C0 85.5 21.5 64 48 64l48 0 0-32zM224 248c13.3 0 24 10.7 24 24l0 56 56 0c13.3 0 24 10.7 24 24s-10.7 24-24 24l-56 0 0 56c0 13.3-10.7 24-24 24s-24-10.7-24-24l0-56-56 0c-13.3 0-24-10.7-24-24s10.7-24 24-24l56 0 0-56c0-13.3 10.7-24 24-24z"/></svg>
